images/hb-hiring.svg

<svg xmlns="http://www.w3.org/2000/svg" preserveAspectRatio="xMidYMid" width="110" height="94"><defs><style>.cls-1,.cls-2{fill:#fff}.cls-1{fill-rule:evenodd}</style></defs><path d="M114 84H3a3 3 0 01-3-3V3a3 3 0 013-3h111a3 3 0 013 3v78a3 3 0 01-3 3zm1-79a3 3 0 00-3-3H5a3 3 0 00-3 3v74a3 3 0 003 3h107a3 3 0 003-3V5zM17.5 8a1.5 1.5 0 11.001-3.001A1.5 1.5 0 0117.5 8zm-5 0a1.5 1.5 0 11.001-3.001A1.5 1.5 0 0112.5 8zm-5 0a1.5 1.5 0 11.001-3.001A1.5 1.5 0 017.5 8z" class="cls-1"/><rect x="35" y="89" width="55" height="5" rx="2" ry="2" class="cls-2"/><path d="M73.199 34.489v-1.568l4.116-1.82-4.116-1.736v-1.554l5.74 2.688v1.26l-5.74 2.73zm-3.43-4.844c-.476.373-.791.67-.945.889a1.206 1.206 0 00-.231.707v.462h-1.232c-.224-.289-.336-.653-.336-1.092 0-.233.088-.467.266-.7.177-.233.494-.539.952-.917.457-.378.76-.672.91-.882.149-.21.224-.488.224-.833 0-.681-.495-1.022-1.484-1.022-.56 0-1.148.065-1.764.196l-.322.07-.084-1.162c.868-.308 1.656-.462 2.366-.462.98 0 1.701.18 2.163.539.462.359.693.936.693 1.729 0 .625-.077 1.101-.231 1.428-.154.327-.469.677-.945 1.05zm-11.2 2.982h1.638v2.016h-1.638v-2.016zm-3.906 0h1.638v2.016h-1.638v-2.016zm-8.792 2.17a8.22 8.22 0 01-1.33-.126v2.982h-1.526v-10.01h1.512v.434c.644-.392 1.246-.588 1.806-.588.924 0 1.601.282 2.03.847.43.565.644 1.512.644 2.842s-.245 2.266-.735 2.807c-.49.541-1.29.812-2.401.812zm.196-5.95c-.438 0-.877.098-1.316.294l-.21.098v4.13c.374.075.784.112 1.232.112.635 0 1.074-.182 1.316-.546.243-.364.364-.985.364-1.862 0-1.484-.462-2.226-1.386-2.226zm-6.916 2.086c0-.756-.079-1.293-.237-1.61-.159-.317-.495-.476-1.008-.476-.448 0-.897.075-1.344.224l-.225.084v5.488h-1.525v-9.912h1.525v3.276c.691-.345 1.331-.518 1.919-.518.933 0 1.57.264 1.911.791.34.527.511 1.398.511 2.611v3.752h-1.527v-3.71zm-9.561 3.864a8.21 8.21 0 01-1.33-.126v2.982h-1.526v-10.01h1.512v.434c.644-.392 1.246-.588 1.806-.588.924 0 1.6.282 2.03.847.429.565.644 1.512.644 2.842s-.245 2.266-.735 2.807c-.49.541-1.291.812-2.401.812zm.196-5.95a3.2 3.2 0 00-1.316.294l-.21.098v4.13c.373.075.784.112 1.232.112.634 0 1.073-.182 1.316-.546.242-.364.364-.985.364-1.862 0-1.484-.462-2.226-1.386-2.226zm-6.202.798c-.476.373-.791.67-.945.889a1.206 1.206 0 00-.231.707v.462h-1.232c-.224-.289-.336-.653-.336-1.092 0-.233.088-.467.266-.7.177-.233.494-.539.952-.917.457-.378.76-.672.91-.882.149-.21.224-.488.224-.833 0-.681-.495-1.022-1.484-1.022-.56 0-1.148.065-1.764.196l-.322.07-.084-1.162c.868-.308 1.656-.462 2.366-.462.98 0 1.701.18 2.163.539.462.359.693.936.693 1.729 0 .625-.077 1.101-.231 1.428-.154.327-.469.677-.945 1.05zm-12.012.854l5.74-2.688v1.554l-4.116 1.736 4.116 1.82v1.568l-5.74-2.73v-1.26zm10.99 4.144h-1.624v-1.96h1.624v1.96zm46.185 0h-1.624v-1.96h1.624v1.96z" class="cls-1"/><path class="cls-2" d="M11 51h11v2H11zm15 0h23v2H26zM11 65h23v2H11zm42-14h42v2H53zm-42 7h42v2H11zm46 0h11v2H57z"/></svg>

<svg xmlns="http://www.w3.org/2000/svg" xmlns:xlink="http://www.w3.org/1999/xlink" preserveAspectRatio="xMidYMid" width="110" height="94" viewBox="0 0 110 94">
  <defs>
    <style>
      .cls-1, .cls-2 {
        fill: #fff;
      }

      .cls-1 {
        fill-rule: evenodd;
      }
    </style>
  </defs>
  <g>
    <path d="M114.000,84.000 L3.000,84.000 C1.343,84.000 -0.000,82.657 -0.000,81.000 L-0.000,3.000 C-0.000,1.343 1.343,-0.000 3.000,-0.000 L114.000,-0.000 C115.657,-0.000 117.000,1.343 117.000,3.000 L117.000,81.000 C117.000,82.657 115.657,84.000 114.000,84.000 ZM115.000,5.000 C115.000,3.343 113.657,2.000 112.000,2.000 L5.000,2.000 C3.343,2.000 2.000,3.343 2.000,5.000 L2.000,79.000 C2.000,80.657 3.343,82.000 5.000,82.000 L112.000,82.000 C113.657,82.000 115.000,80.657 115.000,79.000 L115.000,5.000 ZM17.500,8.000 C16.672,8.000 16.000,7.328 16.000,6.500 C16.000,5.672 16.672,5.000 17.500,5.000 C18.328,5.000 19.000,5.672 19.000,6.500 C19.000,7.328 18.328,8.000 17.500,8.000 ZM12.500,8.000 C11.672,8.000 11.000,7.328 11.000,6.500 C11.000,5.672 11.672,5.000 12.500,5.000 C13.328,5.000 14.000,5.672 14.000,6.500 C14.000,7.328 13.328,8.000 12.500,8.000 ZM7.500,8.000 C6.672,8.000 6.000,7.328 6.000,6.500 C6.000,5.672 6.672,5.000 7.500,5.000 C8.328,5.000 9.000,5.672 9.000,6.500 C9.000,7.328 8.328,8.000 7.500,8.000 Z" class="cls-1"/>
    <rect x="35" y="89" width="55" height="5" rx="2" ry="2" class="cls-2"/>
    <path d="M73.199,34.489 L73.199,32.921 L77.315,31.101 L73.199,29.365 L73.199,27.811 L78.939,30.499 L78.939,31.759 L73.199,34.489 ZM69.769,29.645 C69.293,30.018 68.978,30.315 68.824,30.534 C68.670,30.753 68.593,30.989 68.593,31.241 L68.593,31.703 L67.361,31.703 C67.137,31.414 67.025,31.050 67.025,30.611 C67.025,30.378 67.113,30.144 67.291,29.911 C67.468,29.678 67.785,29.372 68.243,28.994 C68.700,28.616 69.003,28.322 69.153,28.112 C69.302,27.902 69.377,27.624 69.377,27.279 C69.377,26.598 68.882,26.257 67.893,26.257 C67.333,26.257 66.745,26.322 66.129,26.453 L65.807,26.523 L65.723,25.361 C66.591,25.053 67.379,24.899 68.089,24.899 C69.069,24.899 69.790,25.079 70.252,25.438 C70.714,25.797 70.945,26.374 70.945,27.167 C70.945,27.792 70.868,28.268 70.714,28.595 C70.560,28.922 70.245,29.272 69.769,29.645 ZM58.569,32.627 L60.207,32.627 L60.207,34.643 L58.569,34.643 L58.569,32.627 ZM54.663,32.627 L56.301,32.627 L56.301,34.643 L54.663,34.643 L54.663,32.627 ZM45.871,34.797 C45.489,34.797 45.045,34.755 44.541,34.671 L44.541,37.653 L43.015,37.653 L43.015,27.643 L44.527,27.643 L44.527,28.077 C45.171,27.685 45.773,27.489 46.333,27.489 C47.257,27.489 47.934,27.771 48.363,28.336 C48.793,28.901 49.007,29.848 49.007,31.178 C49.007,32.508 48.762,33.444 48.272,33.985 C47.782,34.526 46.982,34.797 45.871,34.797 ZM46.067,28.847 C45.629,28.847 45.190,28.945 44.751,29.141 L44.541,29.239 L44.541,33.369 C44.915,33.444 45.325,33.481 45.773,33.481 C46.408,33.481 46.847,33.299 47.089,32.935 C47.332,32.571 47.453,31.950 47.453,31.073 C47.453,29.589 46.991,28.847 46.067,28.847 ZM39.151,30.933 C39.151,30.177 39.072,29.640 38.914,29.323 C38.755,29.006 38.419,28.847 37.906,28.847 C37.458,28.847 37.009,28.922 36.562,29.071 L36.337,29.155 L36.337,34.643 L34.812,34.643 L34.812,24.731 L36.337,24.731 L36.337,28.007 C37.028,27.662 37.668,27.489 38.256,27.489 C39.189,27.489 39.826,27.753 40.167,28.280 C40.507,28.807 40.678,29.678 40.678,30.891 L40.678,34.643 L39.151,34.643 L39.151,30.933 ZM29.590,34.797 C29.207,34.797 28.764,34.755 28.260,34.671 L28.260,37.653 L26.734,37.653 L26.734,27.643 L28.246,27.643 L28.246,28.077 C28.890,27.685 29.492,27.489 30.052,27.489 C30.976,27.489 31.652,27.771 32.082,28.336 C32.511,28.901 32.726,29.848 32.726,31.178 C32.726,32.508 32.481,33.444 31.991,33.985 C31.501,34.526 30.700,34.797 29.590,34.797 ZM29.786,28.847 C29.347,28.847 28.908,28.945 28.470,29.141 L28.260,29.239 L28.260,33.369 C28.633,33.444 29.044,33.481 29.492,33.481 C30.126,33.481 30.565,33.299 30.808,32.935 C31.050,32.571 31.172,31.950 31.172,31.073 C31.172,29.589 30.710,28.847 29.786,28.847 ZM23.584,29.645 C23.108,30.018 22.793,30.315 22.639,30.534 C22.485,30.753 22.408,30.989 22.408,31.241 L22.408,31.703 L21.176,31.703 C20.952,31.414 20.840,31.050 20.840,30.611 C20.840,30.378 20.928,30.144 21.106,29.911 C21.283,29.678 21.600,29.372 22.058,28.994 C22.515,28.616 22.818,28.322 22.968,28.112 C23.117,27.902 23.192,27.624 23.192,27.279 C23.192,26.598 22.697,26.257 21.708,26.257 C21.148,26.257 20.560,26.322 19.944,26.453 L19.622,26.523 L19.538,25.361 C20.406,25.053 21.194,24.899 21.904,24.899 C22.884,24.899 23.605,25.079 24.067,25.438 C24.529,25.797 24.760,26.374 24.760,27.167 C24.760,27.792 24.683,28.268 24.529,28.595 C24.375,28.922 24.060,29.272 23.584,29.645 ZM11.572,30.499 L17.312,27.811 L17.312,29.365 L13.196,31.101 L17.312,32.921 L17.312,34.489 L11.572,31.759 L11.572,30.499 ZM22.562,34.643 L20.938,34.643 L20.938,32.683 L22.562,32.683 L22.562,34.643 ZM68.747,34.643 L67.123,34.643 L67.123,32.683 L68.747,32.683 L68.747,34.643 Z" class="cls-1"/>
    <rect x="11" y="51" width="11" height="2" class="cls-2"/>
    <rect x="26" y="51" width="23" height="2" class="cls-2"/>
    <rect x="11" y="65" width="23" height="2" class="cls-2"/>
    <rect x="53" y="51" width="42" height="2" class="cls-2"/>
    <rect x="11" y="58" width="42" height="2" class="cls-2"/>
    <rect x="57" y="58" width="11" height="2" class="cls-2"/>
  </g>
</svg>
